_inc/systems/logos/cdi.svg

<?xml version="1.0" encoding="utf-8"?>
<svg viewBox="0 0 600 87" xmlns="http://www.w3.org/2000/svg">
  <path d="M 110.65 86.525 C 61.438 83.539 22.622 72.591 7.25 57.33 C 0.173 50.363 -1.597 44.17 1.389 37.424 C 8.245 22.052 36.114 9.666 78.579 3.031 C 97.158 0.156 142.499 -0.95 162.847 0.93 C 193.148 3.805 224.665 11.768 240.037 20.393 C 247.115 24.374 256.072 31.452 256.072 33.222 C 256.072 33.774 248.552 34.217 238.489 34.217 C 222.564 34.217 220.684 33.996 218.141 32.005 C 197.903 16.08 127.127 9.445 78.469 18.845 C 47.504 24.817 30.584 35.544 34.786 46.603 C 38.215 55.781 55.798 63.744 83.556 68.72 C 99.591 71.595 140.398 72.701 158.976 70.821 C 184.522 68.167 206.418 62.417 216.924 55.339 L 221.901 51.911 L 239.042 51.911 C 248.331 51.911 256.072 52.353 256.072 52.906 C 256.072 55.118 245.677 63.191 237.604 67.172 C 223.228 74.36 206.861 79.115 184.19 82.765 C 161.52 86.414 132.656 87.962 110.65 86.525 Z" style="fill: rgb(255, 255, 255);"/>
  <path d="M 264.919 44.723 L 264.919 5.464 L 317.78 5.464 C 395.302 5.464 419.521 7.455 444.956 15.97 C 462.871 22.052 472.934 28.909 476.584 37.756 C 484.325 56.224 461.986 72.812 419.742 80 C 400.61 83.207 383.248 83.981 323.862 83.981 L 264.919 83.981 L 264.919 44.723 Z M 408.241 67.061 C 427.593 63.522 441.196 57.44 444.735 50.694 C 450.485 39.525 439.205 29.462 415.65 24.264 C 399.947 20.836 382.031 19.84 336.58 19.84 L 293.672 19.84 L 293.672 44.833 L 293.672 69.826 L 345.98 69.273 C 388.114 68.941 400.168 68.499 408.241 67.061 Z" style="fill: rgb(255, 255, 255);"/>
  <path d="M 574.564 58.546 L 574.564 33.111 L 587.282 33.111 L 600 33.111 L 600 58.546 L 600 83.981 L 587.282 83.981 L 574.564 83.981 L 574.564 58.546 Z" style="fill: rgb(255, 255, 255);"/>
  <path d="M 492.73 47.487 C 492.73 40.299 493.061 37.534 494.167 37.534 C 497.153 37.424 552.447 46.934 552.447 47.487 C 552.447 48.04 497.153 57.551 494.167 57.44 C 493.061 57.44 492.73 54.675 492.73 47.487 Z" style="fill: rgb(255, 255, 255);"/>
  <path d="M 117.285 54.123 C 109.322 52.685 103.019 50.031 100.144 46.934 C 97.932 44.612 97.711 43.838 98.817 41.516 C 100.365 38.087 106.337 34.991 114.631 33.111 C 122.814 31.231 144.268 32.226 151.125 34.659 C 160.967 38.198 163.842 44.17 157.981 48.372 C 150.793 53.459 129.892 56.445 117.285 54.123 Z M 144.268 48.483 C 151.456 46.934 155.437 44.059 153.447 41.626 C 152.673 40.741 149.687 39.304 146.812 38.53 C 139.955 36.539 117.727 36.65 111.866 38.751 C 106.89 40.52 104.457 43.396 106.447 45.386 C 110.097 49.036 132.988 50.916 144.268 48.483 Z" style="fill: rgb(255, 255, 255);"/>
  <path d="M 574.564 14.311 L 574.564 5.464 L 587.282 5.464 L 600 5.464 L 600 14.311 L 600 23.158 L 587.282 23.158 L 574.564 23.158 L 574.564 14.311 Z" style="fill: rgb(255, 255, 255);"/>
</svg>

<svg xmlns="http://www.w3.org/2000/svg" viewBox="0 0 600 87"><path d="M110.65 86.53c-49.21-3-88.03-13.94-103.4-29.2-7.08-6.97-8.85-13.16-5.86-19.9C8.25 22.04 36.1 9.66 78.58 3.02 97.16.16 142.5-.95 162.85.93c30.3 2.88 61.82 10.84 77.19 19.46 7.08 3.98 16.03 11.06 16.03 12.83 0 .55-7.52 1-17.58 1-15.93 0-17.8-.22-20.35-2.21C197.9 16.08 127.13 9.45 78.47 18.85 47.5 24.82 30.58 35.55 34.79 46.6c3.43 9.18 21 17.14 48.77 22.12 16.03 2.88 56.84 3.98 75.42 2.1 25.54-2.65 47.44-8.4 57.94-15.48l4.98-3.43h17.14c9.3 0 17.03.44 17.03 1 0 2.2-10.4 10.28-18.47 14.26-14.37 7.19-30.74 11.94-53.41 15.6-22.67 3.64-51.53 5.2-73.54 3.76m154.27-41.81V5.46h52.86c77.52 0 101.74 2 127.18 10.51 17.91 6.08 27.97 12.94 31.62 21.79 7.75 18.46-14.6 35.05-56.84 42.24-19.13 3.2-36.5 3.98-95.88 3.98h-58.94zm143.32 22.34c19.35-3.54 32.96-9.62 36.5-16.37 5.75-11.16-5.54-21.23-29.09-26.43-15.7-3.42-33.62-4.42-79.07-4.42h-42.9v49.99l52.3-.56c42.13-.33 54.19-.77 62.26-2.2m166.32-8.52V33.1H600v50.87h-25.44zm-81.83-11.06c0-7.2.33-9.96 1.44-9.96 2.98-.1 58.28 9.4 58.28 9.96 0 .55-55.3 10.06-58.28 9.95-1.1 0-1.44-2.77-1.44-9.95" style="fill:#fff"/><path d="M117.29 54.12c-7.97-1.43-14.27-4.09-17.15-7.19-2.2-2.32-2.43-3.1-1.32-5.41 1.55-3.43 7.52-6.53 15.81-8.4 8.18-1.89 29.64-.9 36.5 1.54 9.84 3.54 12.71 9.51 6.85 13.71-7.19 5.09-28.09 8.08-40.7 5.75m26.98-5.64c7.19-1.55 11.17-4.42 9.18-6.85-.78-.89-3.76-2.33-6.64-3.1-6.85-2-29.08-1.88-34.94.22-4.98 1.77-7.41 4.65-5.42 6.64 3.65 3.65 26.54 5.53 37.82 3.1m430.3-34.18V5.46H600v17.7h-25.44z" style="fill:#fff"/></svg>
